X:1
T:Nightingale Reel
M:2/4
L:1/8
R:Reel
B:A.S. Bowman – “J.W. Pepper Collection of Five Hundred Reels, Jigs,
B:etc.” (Phila., 1908, No. 201, p. 43)
Z:AK/Fiddler’s Companion
K:C
(3g/^f/g/|a/g/=f/e/ d/c/B/A/|G/E/G/c/ A/F/A/c/|B/c/d/e/ f/a/B/d/|c/E/G/c/ e(3g/^f/g/|
a/g/=f/e/ d/c/B/A/|G/E/G/c/ A/F/A/c/|B/a/B/g/ f/d/B/d/|1cec:|2 cec z||
|:e/cA/ B/c/d|f/dB/ c/d/e|b/^ge/ a/e/c/A/|^G/E/G/B/ A/B/c/d/|
e/^cA/ d/e/f|^f/^dB/ e/f/g|a/=f=d/ A/d/g/f/|1e/f/d/B/ cz:|2 e/f/d/B/ c||

